**kern
*clefG2
*k[]
*M4/4
=1
*^
2.ee	2.a
4dd	4g
=2	=2
4cc	4f
4b	4e
4a	4d
4b	4e
=3	=3
2cc	2f
2r	2r
=4||	=4||
2.ee	2.cc
4dd	4b
=5	=5
4cc	4a
4b	4g
4a	4f
4b	4g
=6	=6
2cc	2a
2r	2r
=7||	=7||
2.ee	2.g
4dd	4f
=8	=8
4cc	4e
4b	4d
4a	4c
4b	4d
=9	=9
2cc	2e
2r	2r
*v	*v
==
*-
!!!system-decoration: [(s1
